public/icons/states/tn.svg

<svg xmlns="http://www.w3.org/2000/svg" width="24" height="24" viewBox="232.333 833.668 15 15"><path d="m242.583 835.282 2.75-.409-.06 1.884-.24.204-.23 1.434-.19-.246-.49 1.434-.08-.697-.24.942-.16-.163-.09 1.187-.26.205-.43 1.393-.56.491-.17.573-.09 1.147-.29.205-.05 1.679-3.35.123-5.02-.655.36-.901-.06-1.598.3-1.146-.04-1.311.32-.655-.04-.574.12.205-.05-1.065.14-.778-.11-.737.19-.041-.09-.573.13-.287-.02-.778.09.409.08-.409 1.91.246-.01-1.352.31.369z"/></svg>

<svg xmlns="http://www.w3.org/2000/svg" width="24" height="24" viewBox="232.333 833.668 15.0 15.0">
  <path
     d="M242.583 835.282L245.333 834.873L245.273 836.757L245.033 836.961L244.803 838.395L244.613 838.149L244.123 839.583L244.043 838.886L243.803 839.828L243.643 839.665L243.553 840.852L243.293 841.057L242.863 842.45L242.303 842.941L242.133 843.514L242.043 844.661L241.753 844.866L241.703 846.545L238.353 846.668L233.333 846.013L233.693 845.112L233.633 843.514L233.933 842.368L233.893 841.057L234.213 840.402L234.173 839.828L234.293 840.033L234.243 838.968L234.383 838.19L234.273 837.453L234.463 837.412L234.373 836.839L234.503 836.552L234.483 835.774L234.573 836.183L234.653 835.774L236.563 836.02L236.553 834.668L236.863 835.037L242.583 835.282Z"
     fill="black"
     id="path22" />
</svg>
